Hatter-kde-dark/actions/24/format-border-set-diagonal-bl-tr.svg

<svg xmlns="http://www.w3.org/2000/svg" viewBox="0 0 24 24">
  <defs id="defs3051">
    <style type="text/css" id="current-color-scheme">
      .ColorScheme-Text {
        color:#dedede;
      }
      </style>
  </defs>
 <path 
     style="fill:currentColor;fill-opacity:0.1;stroke:none" 
     d="M 4 3 L 4 4 L 4 11 L 4 12 L 4 19 L 4 20 L 12 20 L 13 20 L 21 20 L 21 19 L 21 3 L 13 3 L 12 3 L 4 3 z M 5 4 L 12 4 L 12 11 L 5 11 L 5 4 z M 13 4 L 20 4 L 20 11 L 13 11 L 13 4 z M 5 12 L 12 12 L 12 19 L 5 19 L 5 12 z M 13 12 L 20 12 L 20 19 L 13 19 L 13 12 z "
     class="ColorScheme-Text"
     />
 <path 
     style="fill:currentColor;fill-opacity:0.5;stroke:none" 
     d="M 5 4 L 5 11 L 12 11 L 12 4 L 5 4 z M 13 4 L 13 10.292969 L 19.292969 4 L 13 4 z M 20 4.7070312 L 13.707031 11 L 20 11 L 20 4.7070312 z M 5 12 L 5 18.292969 L 11.292969 12 L 5 12 z M 13 12 L 13 19 L 20 19 L 20 12 L 13 12 z M 12 12.707031 L 5.7070312 19 L 12 19 L 12 12.707031 z "
     class="ColorScheme-Text"
     />
 <path 
     style="fill:currentColor;fill-opacity:1.0;stroke:none" 
     d="M 20.292969 3 L 4 19.292969 L 4 20 L 4.7070312 20 L 21 3.7070312 L 21 3 L 20.292969 3 z "
     class="ColorScheme-Text"
     />
</svg>

<?xml version="1.0" encoding="UTF-8"?>
<svg viewBox="0 0 24 24" xmlns="http://www.w3.org/2000/svg">
 <defs id="defs3051">
  <style id="current-color-scheme" type="text/css">.ColorScheme-Text {
        color:#dedede;
      }</style>
 </defs>
 <path class="ColorScheme-Text" d="m4 3v1 7 1 7 1h8 1 8v-1-16h-8-1-8zm1 1h7v7h-7v-7zm8 0h7v7h-7v-7zm-8 8h7v7h-7v-7zm8 0h7v7h-7v-7z" fill="currentColor" fill-opacity=".1"/>
 <path class="ColorScheme-Text" d="m5 4v7h7v-7h-7zm8 0v6.293l6.293-6.293h-6.293zm7 0.70703-6.293 6.293h6.293v-6.293zm-15 7.293v6.293l6.293-6.293h-6.293zm8 0v7h7v-7h-7zm-1 0.70703-6.293 6.293h6.293v-6.293z" fill="currentColor" fill-opacity=".5"/>
 <path class="ColorScheme-Text" d="m20.293 3-16.293 16.293v0.70703h0.70703l16.293-16.293v-0.70703h-0.70703z" fill="currentColor"/>
</svg>
